pieces/kosal/nb.svg

<svg xmlns="http://www.w3.org/2000/svg" viewBox="0 0 81 81"><style>.st0{fill:none}.st1{fill:#010101}.st2{fill:#6d6e6e}</style><path class="st0" d="M0 0h81v81H0z"/><path class="st1" d="M19.6 72H67l-2-6.1s-.1-17-.1-26.1c0-17.3-8.5-25.3-16-28.4-5.6-2.3-14.6-1.8-14.6-1.8l3.3 6.5L12 36.4l2 12.2 13.4 3.5 6.1-5.1c1.2.5 2.5.8 3.7 1.1v.3S22.9 57 19.6 72zm11.8-40.7c-.6.3-1.1-.5-.6-1l7.2-6.2 2.2 3.7-8.8 3.5z"/><path class="st2" d="M15.8 38l1.3 7.9 4.7 1.1-.1-4.6-2.9-.5zM30.8 33.4l15.6-3.8 2.2-3.8s2.8 1.1 2.1 6.3-6.8 8.3-12.1 7.6c-6.9-.9-7.8-6.3-7.8-6.3zM36 67.9c5.1-16.4 16.4-13 16.8-22.4-3.3 5.9-10.7 5.6-10.7 5.6s-11.6 5.1-15.8 16.8H36z"/></svg>

<svg width="81" height="81" viewBox="0 0 81 81" fill="none" xmlns="http://www.w3.org/2000/svg">
<path d="M19.6 72H67L65 65.9C65 65.9 64.9 48.9 64.9 39.8C64.9 22.5 56.4 14.5 48.9 11.4C43.3 9.1 34.3 9.6 34.3 9.6L37.6 16.1L12 36.4L14 48.6L27.4 52.1L33.5 47C34.7 47.5 36 47.8 37.2 48.1V48.4C37.2 48.4 22.9 57 19.6 72ZM31.4 31.3C30.8 31.6 30.3 30.8 30.8 30.3L38 24.1L40.2 27.8L31.4 31.3Z" fill="#010101"/>
<path d="M15.8 38L17.1 45.9L21.8 47L21.7 42.4L18.8 41.9L15.8 38ZM30.8 33.4L46.4 29.6L48.6 25.8C48.6 25.8 51.4 26.9 50.7 32.1C50 37.3 43.9 40.4 38.6 39.7C31.7 38.8 30.8 33.4 30.8 33.4ZM36 67.9C41.1 51.5 52.4 54.9 52.8 45.5C49.5 51.4 42.1 51.1 42.1 51.1C42.1 51.1 30.5 56.2 26.3 67.9H36Z" fill="#6D6E6E"/>
</svg>
